icons/slim.svg

<svg xmlns="http://www.w3.org/2000/svg" viewBox="0 0 24 24"><path fill="#fb9d38" d="m8.46 15.06-1.41 1.41-1.37-1.37A7.94 7.94 0 0 0 4.06 19H6v2H2v-1c0-4.84 3.44-8.87 8-9.8v-2L2 5V3h20v2l-8 3.2v2c4.56.93 8 4.96 8 9.8v1h-4v-2h1.94a7.94 7.94 0 0 0-1.62-3.9l-1.37 1.37-1.41-1.41 1.37-1.38A8 8 0 0 0 13 12.06V14h-2v-1.94c-1.46.18-2.8.76-3.91 1.62zM12 18a2 2 0 0 1 2 2 2 2 0 0 1-2 2c-.32 0-.62-.07-.88-.21L7.27 20l3.85-1.79c.26-.14.56-.21.88-.21" data-iconColor="Slim"/></svg>

<!--
  - The MIT License (MIT)
  -
  - Copyright (c) 2015-2024 Elior "Mallowigi" Boukhobza
  -
  - Permission is hereby granted, free of charge, to any person obtaining a copy
  - of this software and associated documentation files (the "Software"), to deal
  - in the Software without restriction, including without limitation the rights
  - to use, copy, modify, merge, publish, distribute, sublicense, and/or sell
  - copies of the Software, and to permit persons to whom the Software is
  - furnished to do so, subject to the following conditions:
  -
  - The above copyright notice and this permission notice shall be included in all
  - copies or substantial portions of the Software.
  -
  - THE SOFTWARE IS PROVIDED "AS IS", WITHOUT WARRANTY OF ANY KIND, EXPRESS OR
  - IMPLIED, INCLUDING BUT NOT LIMITED TO THE WARRANTIES OF MERCHANTABILITY,
  - FITNESS FOR A PARTICULAR PURPOSE AND NONINFRINGEMENT. IN NO EVENT SHALL THE
  - AUTHORS OR COPYRIGHT HOLDERS BE LIABLE FOR ANY CLAIM, DAMAGES OR OTHER
  - LIABILITY, WHETHER IN AN ACTION OF CONTRACT, TORT OR OTHERWISE, ARISING FROM,
  - OUT OF OR IN CONNECTION WITH THE SOFTWARE OR THE USE OR OTHER DEALINGS IN THE
  - SOFTWARE.
  -
  -->

<svg xmlns="http://www.w3.org/2000/svg" version="1.1" width="16px" height="16px" viewBox="0 0 24 24">
  <path fill="#fb9d38" data-iconColor="Slim"
        d="M8.46,15.06L7.05,16.47L5.68,15.1C4.82,16.21 4.24,17.54 4.06,19H6V21H2V20C2,15.16 5.44,11.13 10,10.2V8.2L2,5V3H22V5L14,8.2V10.2C18.56,11.13 22,15.16 22,20V21H18V19H19.94C19.76,17.54 19.18,16.21 18.32,15.1L16.95,16.47L15.54,15.06L16.91,13.68C15.8,12.82 14.46,12.24 13,12.06V14H11V12.06C9.54,12.24 8.2,12.82 7.09,13.68L8.46,15.06M12,18A2,2 0 0,1 14,20A2,2 0 0,1 12,22C11.68,22 11.38,21.93 11.12,21.79L7.27,20L11.12,18.21C11.38,18.07 11.68,18 12,18Z"/>
</svg>
